X:1
T:Title
%%score { ( 1 3 ) | ( 2 4 ) }
L:1/8
Q:1/4=82
M:4/4
K:C
V:1 treble nm="Grand Piano"
V:3 treble 
V:2 bass 
V:4 bass 
V:1
 GC/E/ GC/E/ G[Gc][Ge][Gc] | ddAB A2 z2 | GC/E/ GC/E/ G[Gc][Ge][Gc] | ddAB [Ec]4 | B2 B2 B>d G>A | %5
w: Wm.~J.~Kirkpatrick * * * * * * * * *|||||
 [DGB]6 [DGB]2 | [D^FA]2 [Fe]2 [Fd]2 [Fc]2 | [DB]6[K:bass] z2 | B2 B2 B>d G>A | [DGB]6 [DGB]2 | %10
w: |||||
 [D^FA]2 [Fe]2 [Fd]3 [CDF] |[M:9/8] [G,G]2- [G,FG]- [G,-FG-] [G,-EG-]2 [G,DG]3 | %12
w: ||
[M:4/4] GC/E/ GC/E/ G[Gc][Ge][Gc] | ddAB A2 z2 | GC/E/ GC/E/ G[Gc][Ge][Gc] | %15
w: |||
[M:8/4] ddAB [Ec]4 z8 |] %16
w: |
V:2
 G,C,/E,/ G,C,/E,/ G,[E,G,][C,C][E,C] | [G,B,F][G,B,F][G,B,F][G,DF][K:bass] z2 G2 | %2
 G,C,/E,/ G,C,/E,/ G,[E,G,][C,C][E,C] | [F,A,F][F,A,F][G,B,F][G,DF][K:bass] [C,C]4 | %4
 [G,DG]2 [G,DG]2 [G,DG]>[G,B,G] [G,B,D]>[K:bass][G,CD] | G,>G,, B,,>D, G,2 G,2 | %6
 D,2 [D,C]2 [D,B,]2 [D,A,]2 | G,4 z4 | [G,DG]2 [G,DG]2 [G,DG]>[G,B,G] [G,B,D]>[K:bass][G,CD] | %9
 G,>G,, B,,>D, G,2 G,2 | D,2 [D,C]2 [D,A,]3 D, |[M:9/8] z2 D- D C2 B,3 | %12
[M:4/4] G,C,/E,/ G,C,/E,/ G,[E,G,][C,C][E,C] | [G,B,F][G,B,F][G,B,F][G,DF][K:bass] z2 G2 | %14
 G,C,/E,/ G,C,/E,/ G,[E,G,][C,C][E,C] | %15
[M:8/4][K:treble] [F,A,F][F,A,F][G,B,F][G,DF][K:bass] [C,C]4 z8 |] %16
V:3
 x8 | z4 [CE]4 | x8 | x8 | x8 | x8 | x8 | z z/[K:bass] G,,/ B,,>D, G,2 z2 | x8 | x8 | x8 | %11
[M:9/8] .[B,D]3 z3 z3 |[M:4/4] x8 | z4 [CE]4 | x8 |[M:8/4] x16 |] %16
V:4
 x8 | z4[K:bass] C,4 | x8 | x4[K:bass] x4 | x15/2[K:bass] x/ | x8 | x8 | G,,2 z2 z4 | %8
 x15/2[K:bass] x/ | x8 | x8 |[M:9/8] G,,8- G,, |[M:4/4] x8 | z4[K:bass] C,4 | x8 | %15
[M:8/4][K:treble] x4[K:bass] x12 |] %16

